sourses/img/mc.svg

<svg width="48" height="48" viewBox="0 0 48 48" fill="none" xmlns="http://www.w3.org/2000/svg">
<g clip-path="url(#clip0)">
<path d="M41.6842 9.47363H6.31579C3.17648 9.47363 0.631577 12.0185 0.631577 15.1578V32.8421C0.631577 35.9814 3.17648 38.5263 6.31579 38.5263H41.6842C44.8235 38.5263 47.3684 35.9814 47.3684 32.8421V15.1578C47.3684 12.0185 44.8235 9.47363 41.6842 9.47363Z" fill="white"/>
<path d="M41.6842 10.1054C43.0243 10.1054 44.3094 10.6378 45.257 11.5853C46.2045 12.5329 46.7368 13.818 46.7368 15.1581V32.8423C46.7368 34.1823 46.2045 35.4675 45.257 36.415C44.3094 37.3626 43.0243 37.8949 41.6842 37.8949H6.31579C4.97575 37.8949 3.69059 37.3626 2.74304 36.415C1.79549 35.4675 1.26316 34.1823 1.26316 32.8423V15.1581C1.26316 13.818 1.79549 12.5329 2.74304 11.5853C3.69059 10.6378 4.97575 10.1054 6.31579 10.1054H41.6842ZM41.6842 8.84229H6.31579C4.64074 8.84229 3.03429 9.5077 1.84985 10.6921C0.665412 11.8766 0 13.483 0 15.1581L0 32.8423C0 34.5173 0.665412 36.1238 1.84985 37.3082C3.03429 38.4927 4.64074 39.1581 6.31579 39.1581H41.6842C43.3593 39.1581 44.9657 38.4927 46.1501 37.3082C47.3346 36.1238 48 34.5173 48 32.8423V15.1581C48 13.483 47.3346 11.8766 46.1501 10.6921C44.9657 9.5077 43.3593 8.84229 41.6842 8.84229Z" fill="#F7F7F7"/>
<path d="M34.4968 24C34.4956 25.2178 34.1239 26.4064 33.431 27.4079C32.7381 28.4094 31.7568 29.1763 30.6176 29.6068C29.4784 30.0372 28.2352 30.1108 27.0532 29.8178C25.8711 29.5248 24.8062 28.879 24 27.9663C24.9679 26.8718 25.5022 25.4611 25.5022 24C25.5022 22.5389 24.9679 21.1282 24 20.0337C24.8062 19.1209 25.8711 18.4752 27.0532 18.1821C28.2352 17.8891 29.4784 17.9627 30.6176 18.3932C31.7568 18.8236 32.7381 19.5906 33.431 20.592C34.1239 21.5935 34.4956 22.7822 34.4968 24Z" fill="#F79E1B"/>
<path d="M24 27.9663C24.8302 27.9663 25.5032 26.1905 25.5032 24C25.5032 21.8095 24.8302 20.0337 24 20.0337C23.1698 20.0337 22.4969 21.8095 22.4969 24C22.4969 26.1905 23.1698 27.9663 24 27.9663Z" fill="#FF5F00"/>
<path d="M22.4969 24C22.4995 25.4608 23.0338 26.8707 24 27.9663C23.1942 28.881 22.1289 29.5285 20.946 29.8227C19.763 30.1168 18.5185 30.0437 17.3781 29.613C16.2378 29.1823 15.2556 28.4145 14.5625 27.4118C13.8693 26.4091 13.498 25.219 13.498 24C13.498 22.781 13.8693 21.5909 14.5625 20.5882C15.2556 19.5855 16.2378 18.8177 17.3781 18.387C18.5185 17.9563 19.763 17.8832 20.946 18.1773C22.1289 18.4715 23.1942 19.119 24 20.0337C23.0338 21.1293 22.4995 22.5392 22.4969 24Z" fill="#EB001B"/>
</g>
<defs>
<clipPath id="clip0">
<rect width="48" height="48" fill="white"/>
</clipPath>
</defs>
</svg>

<svg width="48" height="48" fill="none" xmlns="http://www.w3.org/2000/svg"><g clip-path="url(#clip0)"><path d="M41.684 9.474H6.316a5.684 5.684 0 00-5.684 5.684v17.684a5.684 5.684 0 005.684 5.684h35.368a5.684 5.684 0 005.684-5.684V15.158a5.684 5.684 0 00-5.684-5.684z" fill="#fff"/><path d="M41.684 10.105a5.053 5.053 0 015.053 5.053v17.684a5.053 5.053 0 01-5.053 5.053H6.316a5.052 5.052 0 01-5.053-5.053V15.158a5.053 5.053 0 015.053-5.053h35.368zm0-1.263H6.316A6.316 6.316 0 000 15.158v17.684a6.316 6.316 0 006.316 6.316h35.368A6.315 6.315 0 0048 32.842V15.158a6.316 6.316 0 00-6.316-6.316z" fill="#F7F7F7"/><path d="M34.497 24A6 6 0 0124 27.966a5.987 5.987 0 000-7.932A6 6 0 0134.497 24z" fill="#F79E1B"/><path d="M24 27.966c.83 0 1.503-1.776 1.503-3.966 0-2.19-.673-3.966-1.503-3.966-.83 0-1.503 1.776-1.503 3.966 0 2.19.673 3.966 1.503 3.966z" fill="#FF5F00"/><path d="M22.497 24A6.013 6.013 0 0024 27.966a6 6 0 110-7.932A6.013 6.013 0 0022.497 24z" fill="#EB001B"/></g><defs><clipPath id="clip0"><path fill="#fff" d="M0 0h48v48H0z"/></clipPath></defs></svg>
